X: 13
T:Y Crythor Llon
T:The Merry Fiddler
M:6/8
L:1/8
Q:130
S:Band y Brodyr
R:Jig
A:Wales
Z:brian_martin12345@yahoo.com
K:D
A|d2df2f|abaf2f|g2fe2d|cecA2A|
d2df2f|abaf2f|g2ec2A|d3-d2:||
f|a3-a2g|f3-f2f|gag fgf|e3-e2f|
a3-a2g|f3-f2f|gfe dec|d3-d2:||
